src/images/mahasiswa/mahasiswa-female-3.svg

<svg width="120" height="120" viewBox="0 0 120 120" fill="none" xmlns="http://www.w3.org/2000/svg">
<path d="M120 59.9995C120 93.1369 93.1369 120 59.9995 120C26.863 120 0 93.1369 0 59.9995C0 26.8631 26.863 0 59.9995 0C93.1369 0 120 26.8631 120 59.9995Z" fill="#29B573"/>
<path d="M59.9995 119.999C76.9207 119.999 92.1947 112.984 103.102 101.716C102.16 96.561 100.876 92.2323 99.0873 89.8974C96.9301 87.08 71.891 77.174 71.891 77.174C71.891 77.174 71.6039 75.6105 71.6029 75.3939V72.5694L75.6188 76.5864C81.8155 70.6197 84.7268 61.8632 85.1908 53.2733C85.623 45.2741 84.0166 36.9805 79.501 30.3639C75.1243 23.9495 67.778 19.3654 60.0383 19.2775C60.0383 19.2745 60.0373 19.2714 60.0373 19.2693C59.9136 19.2653 59.792 19.2745 59.6694 19.2734C59.5468 19.2745 59.4252 19.2653 59.3025 19.2693C59.3015 19.2714 59.3005 19.2745 59.3005 19.2775C54.7767 19.3286 50.3921 20.9248 46.651 23.5152C45.6603 24.1621 44.7682 24.8733 43.9698 25.6428C42.4131 27.0519 41.0151 28.6379 39.838 30.3639C35.3226 36.9805 33.7159 45.2741 34.1478 53.2733C34.6117 61.8632 37.5236 70.6197 43.7195 76.5864L48.4409 71.8643V75.3275H48.3974L48.108 77.174C48.108 77.174 23.0693 87.08 20.9122 89.8974C19.1242 92.2323 17.8401 96.561 16.8972 101.716C27.805 112.984 43.0788 119.999 59.9995 119.999Z" fill="#0C6C40"/>
</svg>

<?xml version="1.0" encoding="UTF-8" standalone="no"?>
<svg width="120" xmlns="http://www.w3.org/2000/svg" viewBox="0 0 120 120" height="120">
 <path d="m120 60c0 33.137-26.863 60-60 60s-60-26.863-60-60 26.863-60 60-60 60 26.863 60 60z" fill="#29B573"/>
 <path d="m60 120c16.921 0 32.195-7.02 43.1-18.28-0.94-5.159-2.22-9.488-4.013-11.823-2.157-2.817-27.196-12.723-27.196-12.723s-0.287-1.564-0.288-1.78v-2.825l4.016 4.017c6.197-5.966 9.108-14.723 9.572-23.313 0.432-7.999-1.174-16.293-5.69-22.909-4.377-6.414-11.723-10.999-19.463-11.086 0-0.004-0.001-0.007-0.001-0.009-0.123-0.004-0.245 0.005-0.368 0.004-0.122 0.001-0.244-0.008-0.367-0.004 0 0.002-0.002 0.005-0.002 0.009-4.523 0.051-8.908 1.647-12.649 4.237-0.991 0.647-1.883 1.358-2.681 2.128-1.557 1.409-2.955 2.995-4.132 4.721-4.515 6.616-6.122 14.91-5.69 22.909 0.464 8.59 3.376 17.347 9.572 23.313l4.721-4.722v3.464h-0.044l-0.289 1.846s-25.039 9.906-27.196 12.723c-1.788 2.335-3.072 6.664-4.015 11.823 10.908 11.26 26.182 18.28 43.103 18.28z" fill="#0C6C40"/>
</svg>
